X:244
T:Steirische Jodler und Taenze Nr. 1 - 48 (42.)
C:traditionell
A:Salzkammergut
S:MIDI erhalten von Christian Amon. Nach einer kopie im besitz von Johann Stoeckl eines manuscriptes. Stoeckl(zitiert von Amon): "diese sammlung wurde 1935 im hause der familie Hohenlohe-Schillingfuerst gefunden. Sie wurde von einem der beiden brueder Steinegger 1866 verfasst. Die originale sind im Ausseer Kammerhofmuseum".
M:3/4
L:1/8
K:G
V:1
GBDB G2 | Acfe d2 | FcDc F2 | GBDB G2 |\
GBDB G2 | Acfe d2 | FcDcFA | G4 z2 |*
V:2
BdGd B2 | ceag f2 | AeFe A2 | BdGd B2 |\
BdGd B2 | ceag f2 | AeFeAc | B4 z2 |*
